X: 63
T: Mrs. MacDouall Grant
T: Strathspey, F
L: 1/16
M: C
K: F
|: c3B1 A3G1 F3G1 A1B3| c3F1 A1F3 c3F1 c1f3| c3B1 A3G1 F3G1 A1F3| A3d1 d3^c1 d4d1f3:| 
c3d1 f3g1 a3f1 g1a3| f3c1 d1c1B1A1 f3c1 f1a3| c3d1 f3g1 a3f1 g1a3| g3a1 g1f3 d4d1f3| 
c3d1 f3g1 a3f1 g1a3| f3c1 d1c1B1A1 f3c1 f1g3| a3f1 g3e1 f3d1 e3c1| A3d1 d3^c1 d4d1f3|| 
B: Skye Collection (as Mrs. MacDouwal Grant)
D: Stephanie Wills, Tradition Continued, STEPH 1-94
